X:1
T:Title
%%score ( 1 2 ) ( 3 4 )
L:1/8
Q:1/4=100
M:6/8
K:Bb
V:1 treble nm="Grand Piano, Soprano"
V:2 treble 
V:3 bass nm="Choir Pad, A Blessing for Someone"
V:4 bass 
V:1
 FG[DA] Bc[Dd] | c2- [Ec] [EG]2 [Ed] | c2- [Ec] [EF]2 [Ec] | B2- [DB] F2- [DF] | FG[DA] Bc[Fd] | %5
w: By~Florence~Williams~Falconer * * * * *|||||
 c2- [Fc] [FA]2 [FA] | c=B[=Ec] dc[CE] | [CF]6 | E-[EG][EA] dc[EA] | G2- [DG] [DF]2 [DB] | %10
w: |||||
 B2- [EB] [EA]2 [Ec] | c2- [Fc] [FB]2 [FB] | c=B[Gc] ed[Gc] | BA[FB] dc[FB] | GA[EB] dc[Ed] | %15
w: |||||
 B2- [EB-] [DB]3- | [DB]3 z3 |] %17
w: ||
V:2
 .D3 .D3 | .E3 z3 | .E3 z3 | .D3 .D3 | .D3 .D3 | .F3 z3 | .=E3 .E3 | x6 | .F3 .E3 | .D3 z3 | %10
 .E3 z3 | .F3 z3 | .G3 .G3 | .F3 .F3 | z3 .E3 | .D3 z3 | x6 |] %17
V:3
 [B,,F,]2 [B,,F,] [B,,F,]2 [B,,F,] | [B,,G,]2 [B,,G,] [B,,G,]2 [B,,G,] | %2
 [F,A,]2 [F,A,] [F,A,]2 [F,A,] | [B,,B,]2 [B,,B,] [B,,B,]2 [B,,B,] | %4
 [B,,F,]2 [B,,F,] [B,,F,]2 [B,,B,] | [C,A,]2 [C,A,] [C,C]2 [C,C] | [C,G,]2 [C,G,] [C,B,]2 [C,B,] | %7
 A,6 | [F,A,]2 [F,C] [F,A,]2 [F,C] | [B,,B,]2 [B,,B,] [B,,B,]2 [B,,F,] | %10
 [C,F,]2 [C,F,] [C,F,]2 [C,A,] | [D,B,]2 [D,B,] [D,B,]2 [D,B,] | [E,B,]2 [E,B,] [E,C]2 [E,E] | %13
 [F,D]2 [F,D] [F,B,]2 [D,B,] | [C,B,]2 [C,G,] [F,A,]2 [F,A,] | .B,3 z3 | z6 |] %17
V:4
 x6 | x6 | x6 | x6 | x6 | x6 | x6 | F,2 C, .F,,3 | x6 | x6 | x6 | x6 | x6 | x6 | x6 | %15
 B,,2- [B,,-G,] [B,,F,]3- | [B,,F,]3 z3 |] %17

